azure-patterns/svg-devops-containers-kubernetes.svg

<svg xmlns="http://www.w3.org/2000/svg" viewBox="0 0 80 80">
                                
                            
    <rect width="80" height="80" fill="black" fill-opacity="0"></rect>
    <circle cx="40" cy="40" r="40" fill="#2560E0" fill-opacity="0.05"></circle>
    <path d="M45.625 22.2988L58 28.4863V42.2852L55.75 41.1602V31L46.75 35.5V40.0352L44.5 41.1602V35.5L35.5 31V34.9902L33.25 33.8652V28.4863L45.625 22.2988ZM45.625 33.5488L48.7363 31.9844L40.5977 27.3262L36.8887 29.1895L45.625 33.5488ZM51.1621 30.7891L54.3613 29.1895L45.625 24.8125L43.0059 26.1309L51.1621 30.7891ZM42.25 42.2852L40 43.4102V43.3926L33.25 46.7676V54.7656L40 51.373V53.9043L32.125 57.8418L22 52.7617V40.8789L32.125 35.8164L42.25 40.8789V42.2852ZM31 54.7656V46.7676L24.25 43.3926V51.373L31 54.7656ZM32.125 44.8164L38.6113 41.582L32.125 38.3301L25.6387 41.582L32.125 44.8164ZM42.25 44.7988L50.125 40.8613L58 44.7988V54.0625L50.125 58L42.25 54.0625V44.7988ZM49 54.9238V49.5625L44.5 47.3125V52.6738L49 54.9238ZM55.75 52.6738V47.3125L51.25 49.5625V54.9238L55.75 52.6738ZM50.125 47.6113L54.3613 45.4844L50.125 43.375L45.8887 45.4844L50.125 47.6113Z" fill="#2560E0"></path>
</svg>

<svg xmlns="http://www.w3.org/2000/svg" viewBox="0 0 80 80"><path fill="none" d="M0 0h80v80H0z"/><circle cx="40" cy="40" r="40" fill="#2560E0" fill-opacity=".05"/><path d="M45.625 22.299L58 28.486v13.8l-2.25-1.126V31l-9 4.5v4.535L44.5 41.16V35.5l-9-4.5v3.99l-2.25-1.125v-5.379L45.625 22.3zm0 11.25l3.111-1.565-8.138-4.658-3.71 1.863 8.737 4.36zm5.537-2.76l3.2-1.6-8.737-4.377-2.62 1.319 8.157 4.658zM42.25 42.285L40 43.41v-.017l-6.75 3.375v7.998L40 51.373v2.531l-7.875 3.938L22 52.762V40.879l10.125-5.063L42.25 40.88v1.406zM31 54.765v-7.997l-6.75-3.375v7.98L31 54.766zm1.125-9.949l6.486-3.234-6.486-3.252-6.486 3.252 6.486 3.234zM42.25 44.8l7.875-3.938L58 44.8v9.264L50.125 58l-7.875-3.938V44.8zM49 54.924v-5.361l-4.5-2.25v5.36l4.5 2.25zm6.75-2.25v-5.361l-4.5 2.25v5.36l4.5-2.25zm-5.625-5.063l4.236-2.127-4.236-2.109-4.236 2.11 4.236 2.126z" fill="#2560E0"/></svg>
